docs/public/static/branding/companies/shutterstock-dark.svg

<svg width="100" height="15" viewBox="0 0 100 15" fill="none" xmlns="http://www.w3.org/2000/svg">
<g clip-path="url(#clip0)">
<path d="M59.682 8.21253C59.5307 8.18596 59.0231 8.10158 58.8744 8.07428C58.0725 7.93006 57.3858 7.74261 57.3858 6.9358C57.3858 6.24307 58.112 5.91987 59.0159 5.91987C60.3607 5.91987 61.5402 6.5293 61.6748 6.59656L62.412 4.65177C62.1284 4.50459 60.9284 3.86352 59.0387 3.86352C57.3079 3.86352 55.1938 4.77238 55.1938 7.03352C55.1938 9.05706 56.6398 9.70656 58.0333 9.95177C58.2257 9.98713 58.8307 10.0905 59.0037 10.1207C59.9409 10.2791 60.4558 10.6282 60.4558 11.2414C60.4558 12.0199 59.7246 12.3848 58.6178 12.3848C56.8455 12.3848 55.8056 11.8566 55.5052 11.7331L54.6885 13.6358C54.9421 13.7665 56.152 14.4487 58.5128 14.4487C60.8037 14.4487 62.6421 13.3141 62.6421 11.2024C62.6242 9.23664 61.3029 8.4909 59.682 8.21253Z" fill="#fff"/>
<path d="M66.6772 0.322202L64.5091 1.52156V4.06137H63.3677V6.13479H64.5091V10.6173C64.5091 12.5321 65.2962 14.2515 68.0723 14.2515H68.9403V12.1763H68.6148C67.2502 12.1763 66.6772 11.3888 66.6772 10.3192V6.13479H69.1673V4.06137H66.6772V0.322202" fill="#fff"/>
<path d="M83.6156 5.97158C84.462 5.97158 85.3286 6.35641 85.5886 7.28751L87.5559 6.53922C87.005 4.59177 85.1959 3.86352 83.6001 3.86352C80.7407 3.86352 79.5879 5.63919 79.5879 7.36504V10.9465C79.5879 12.6716 80.7407 14.4487 83.6001 14.4487C85.1959 14.4487 87.005 13.7195 87.5559 11.772L85.5886 11.024C85.3286 11.9541 84.462 12.3411 83.6156 12.3411C82.1426 12.3411 81.7522 11.5346 81.7522 10.6153V7.69554C81.7522 6.77717 82.1426 5.97158 83.6156 5.97158Z" fill="#fff"/>
<path d="M92.8864 8.63821L96.9396 4.06137H94.2735L90.7871 8.05076V0.322622H88.6172V14.2515H90.7871V11.0082L91.4989 10.2044L94.6035 14.2515H97.2054L92.8864 8.63821Z" fill="#fff"/>
<path d="M75.2323 6.28468H72.9779C72.6193 6.28468 72.3285 6.57593 72.3285 6.93301V9.37939H70.1045V6.93301C70.1045 5.34628 71.39 4.06111 72.9779 4.06111H75.2323V6.28468" fill="#fff"/>
<path d="M73.3975 12.0276H75.6534C76.0104 12.0276 76.302 11.7368 76.302 11.3785V8.93289H78.5256V11.3785C78.5256 12.9652 77.2397 14.2515 75.6534 14.2515H73.3975V12.0276Z" fill="#fff"/>
<path d="M36.6303 4.06137H39.1196V6.13479H36.6303V10.3192C36.6303 11.3888 37.203 12.1763 38.5664 12.1763H38.8919V14.2515H38.0235C35.2466 14.2515 34.4619 12.5321 34.4619 10.6173V6.13479H30.8128V10.3192C30.8128 11.3888 31.3865 12.1763 32.75 12.1763H33.0744V14.2515H32.2057C29.43 14.2515 28.6435 12.5321 28.6435 10.6173V6.13479H27.5444V4.06137H28.6435V1.52156L30.8128 0.322202V4.06137H34.4619V1.52156L36.6303 0.322202V4.06137" fill="#fff"/>
<path d="M13.2238 3.86365C12.5379 3.86365 11.842 3.99646 11.2158 4.26171V0.322202H9.04736V14.2515H11.2158V6.28882C11.6516 6.01505 12.2786 5.85156 12.8915 5.85156C14.2545 5.85156 14.8961 6.60931 14.8961 7.72684V14.2515H17.0626V7.43068C17.0626 5.37387 15.5729 3.86365 13.2238 3.86365" fill="#fff"/>
<path d="M24.2142 12.2248C23.802 12.4472 23.2804 12.5746 22.7615 12.5746C21.1431 12.5746 20.5348 11.7503 20.5348 10.6133V4.06124H18.3667V10.6533C18.3667 13.2157 19.8477 14.4487 22.4946 14.4487C23.7622 14.4487 25.1659 14.1282 26.3815 13.602V4.06124H24.2142V12.2248Z" fill="#fff"/>
<path d="M4.99316 8.21253C4.843 8.18596 4.3346 8.10158 4.18548 8.07428C3.38522 7.93006 2.69695 7.74261 2.69695 6.9358C2.69695 6.24307 3.4225 5.91987 4.32734 5.91987C5.67194 5.91987 6.85137 6.5293 6.98593 6.59656L7.72278 4.65177C7.44103 4.50459 6.23989 3.86352 4.34901 3.86352C2.61941 3.86352 0.504992 4.77238 0.504992 7.03352C0.504992 9.05706 1.94941 9.70656 3.34482 9.95177C3.53686 9.98713 4.14224 10.0905 4.31635 10.1207C5.25323 10.2791 5.76582 10.6282 5.76582 11.2414C5.76582 12.0199 5.03684 12.3848 3.93046 12.3848C2.15661 12.3848 1.11677 11.8566 0.816004 11.7331L0 13.6358C0.254426 13.7665 1.46388 14.4487 3.82471 14.4487C6.11559 14.4487 7.95403 13.3141 7.95403 11.2024C7.9343 9.23664 6.61331 8.4909 4.99316 8.21253Z" fill="#fff"/>
<path d="M45.9165 8.38364H42.2607V7.64219C42.2607 6.81519 42.6759 5.9282 44.0998 5.9282C45.4724 5.9282 45.9165 6.79204 45.9165 7.60196V8.38364ZM48.085 7.36504C48.085 5.5012 46.6645 3.8628 44.1101 3.8628C41.2105 3.8628 40.0972 5.67348 40.0972 7.36504V10.7495C40.0972 13.0909 41.5934 14.4487 44.1101 14.4487C46.3302 14.4487 47.4827 13.165 47.8249 12.394L45.9945 11.2943C45.8382 11.7472 45.1135 12.3826 44.1245 12.3826C42.7839 12.3826 42.2683 11.6346 42.2683 10.6974L42.2607 10.1392H48.085V7.36504Z" fill="#fff"/>
<path d="M49.4727 7.36905V14.2515H51.6392V7.55426C51.6392 6.96935 51.9711 5.96977 53.5624 5.96977C53.8122 5.96977 54.3768 6.04091 54.5574 6.07479V3.97281C54.362 3.92559 53.9141 3.86292 53.4514 3.86292C50.6955 3.86292 49.4727 5.59148 49.4727 7.36905" fill="#fff"/>
<path d="M99.1243 4.63957C99.1243 4.55889 99.0733 4.4833 98.9372 4.4833H98.8011V4.82668H98.9372C99.084 4.82668 99.1243 4.7609 99.1243 4.65486V4.63957ZM99.1041 5.36733C99.0939 5.36733 99.084 5.36243 99.0786 5.3525L98.9167 4.99855H98.8011V5.34714C98.8011 5.35737 98.7954 5.36733 98.7859 5.36733H98.5832C98.5733 5.36733 98.5631 5.35737 98.5631 5.34714V4.30121H98.9676C99.2402 4.30121 99.3615 4.47334 99.3615 4.63467V4.65486C99.3615 4.79653 99.2859 4.92786 99.1494 4.98859L99.3516 5.34714C99.3566 5.35737 99.3516 5.36733 99.3414 5.36733H99.1041ZM98.9372 4.03311C98.4775 4.03311 98.1437 4.39243 98.1437 4.85208C98.1437 5.28178 98.4824 5.64566 98.9372 5.64566C99.3969 5.64566 99.7258 5.28178 99.7258 4.85208C99.7258 4.39703 99.3669 4.03311 98.9372 4.03311ZM98.9372 5.8833C98.3509 5.8833 97.876 5.43847 97.876 4.85208C97.876 4.26585 98.3509 3.79547 98.9372 3.79547C99.5182 3.79547 99.9935 4.27075 99.9935 4.85208C99.9935 5.43847 99.5235 5.8833 98.9372 5.8833Z" fill="#fff"/>
</g>
<defs>
<clipPath id="clip0">
<rect width="100" height="14.4487" fill="white"/>
</clipPath>
</defs>
</svg>

<svg width="100" height="15" fill="none" xmlns="http://www.w3.org/2000/svg">
  <g clip-path="url(#clip0)" fill="#fff">
    <path d="M59.682 8.213c-.151-.027-.659-.111-.808-.139-.802-.144-1.488-.331-1.488-1.138 0-.693.726-1.016 1.63-1.016 1.345 0 2.524.61 2.659.677l.737-1.945c-.284-.147-1.484-.788-3.373-.788-1.731 0-3.845.908-3.845 3.17 0 2.023 1.446 2.673 2.84 2.918.192.035.797.139.97.169.937.158 1.452.507 1.452 1.12 0 .779-.731 1.144-1.838 1.144-1.773 0-2.812-.528-3.113-.652l-.817 1.903c.254.13 1.464.813 3.825.813 2.29 0 4.13-1.135 4.13-3.247-.019-1.965-1.34-2.711-2.961-2.99zM66.677.322l-2.168 1.2v2.54h-1.141v2.073h1.141v4.482c0 1.915.787 3.634 3.563 3.634h.868v-2.075h-.325c-1.365 0-1.938-.787-1.938-1.857V6.135h2.49V4.06h-2.49V.322M83.616 5.972c.846 0 1.713.384 1.973 1.316l1.967-.749c-.551-1.947-2.36-2.675-3.956-2.675-2.86 0-4.012 1.775-4.012 3.501v3.582c0 1.725 1.153 3.502 4.012 3.502 1.596 0 3.405-.73 3.956-2.677l-1.967-.748c-.26.93-1.127 1.317-1.973 1.317-1.473 0-1.864-.806-1.864-1.726v-2.92c0-.918.39-1.723 1.864-1.723zM92.886 8.638l4.054-4.577h-2.666l-3.487 3.99V.323h-2.17v13.929h2.17v-3.244l.712-.804 3.105 4.047h2.601l-4.319-5.613zM75.232 6.285h-2.254a.65.65 0 00-.65.648v2.446h-2.224V6.933a2.872 2.872 0 012.874-2.872h2.254v2.224M73.397 12.028h2.256a.65.65 0 00.649-.65V8.934h2.224v2.446a2.873 2.873 0 01-2.873 2.873h-2.256v-2.224zM36.63 4.061h2.49v2.074h-2.49v4.184c0 1.07.573 1.857 1.936 1.857h.326v2.075h-.869c-2.776 0-3.561-1.719-3.561-3.634V6.135h-3.65v4.184c0 1.07.575 1.857 1.938 1.857h.324v2.075h-.868c-2.776 0-3.563-1.719-3.563-3.634V6.135h-1.099V4.06h1.1v-2.54L30.813.323v3.74h3.649v-2.54l2.168-1.2v3.74M13.224 3.864a5.19 5.19 0 00-2.008.398V.322H9.047v13.93h2.169V6.288c.436-.274 1.063-.437 1.676-.437 1.363 0 2.004.757 2.004 1.875v6.524h2.167v-6.82c0-2.057-1.49-3.567-3.84-3.567M24.214 12.225c-.412.222-.934.35-1.452.35-1.619 0-2.227-.825-2.227-1.962V4.061h-2.168v6.592c0 2.563 1.48 3.796 4.128 3.796 1.267 0 2.67-.32 3.886-.847v-9.54h-2.167v8.163zM4.993 8.213c-.15-.027-.658-.111-.808-.139-.8-.144-1.488-.331-1.488-1.138 0-.693.725-1.016 1.63-1.016 1.345 0 2.524.61 2.659.677l.737-1.945c-.282-.147-1.483-.788-3.374-.788-1.73 0-3.844.908-3.844 3.17 0 2.023 1.444 2.673 2.84 2.918.192.035.797.139.971.169.937.158 1.45.507 1.45 1.12 0 .779-.73 1.144-1.836 1.144-1.773 0-2.813-.528-3.114-.652L0 13.636c.254.13 1.464.813 3.825.813 2.29 0 4.129-1.135 4.129-3.247-.02-1.965-1.34-2.711-2.96-2.99zM45.916 8.384h-3.655v-.742c0-.827.415-1.714 1.839-1.714 1.372 0 1.816.864 1.816 1.674v.782zm2.169-1.019c0-1.864-1.42-3.502-3.975-3.502-2.9 0-4.013 1.81-4.013 3.502v3.384c0 2.342 1.496 3.7 4.013 3.7 2.22 0 3.373-1.284 3.715-2.055l-1.83-1.1c-.157.453-.881 1.089-1.87 1.089-1.341 0-1.857-.748-1.857-1.686l-.007-.558h5.824V7.365zM49.473 7.369v6.883h2.166V7.553c0-.585.332-1.584 1.923-1.584.25 0 .815.07.995.105V3.973a5.449 5.449 0 00-1.106-.11c-2.755 0-3.978 1.728-3.978 3.506M99.124 4.64c0-.081-.05-.157-.187-.157h-.136v.344h.136c.147 0 .187-.066.187-.172V4.64zm-.02.727a.028.028 0 01-.025-.014l-.162-.354H98.8v.348c0 .01-.006.02-.015.02h-.203c-.01 0-.02-.01-.02-.02V4.301h.405c.272 0 .394.172.394.334v.02a.358.358 0 01-.213.334l.203.358c.005.01 0 .02-.01.02h-.238zm-.167-1.334c-.46 0-.793.36-.793.82 0 .429.338.793.793.793.46 0 .789-.364.789-.794 0-.455-.36-.819-.789-.819zm0 1.85c-.586 0-1.061-.445-1.061-1.03a1.06 1.06 0 012.117 0c0 .585-.47 1.03-1.056 1.03z"/>
  </g>
  <defs>
    <clipPath id="clip0">
      <path fill="#fff" d="M0 0h100v14.449H0z"/>
    </clipPath>
  </defs>
</svg>
